assets/icon-apple.svg

<svg
  class="icon icon-accordion icon-apple"

  focusable="false"
  xmlns="http://www.w3.org/2000/svg"


  viewBox="0 0 20 20"
>
  <path d="M10.6616 1.84311C11.4997 0.994336 12.5829 0.555929 13.3364 0.406304C13.4671 0.380359 13.6027 0.407635 13.7132 0.48208C13.8237 0.556525 13.8999 0.671982 13.9249 0.802834C14.2685 2.59987 13.7042 3.90202 12.8265 4.77303C11.9732 5.61989 10.8528 6.03394 10.0739 6.16284C9.94237 6.1846 9.80763 6.15297 9.69957 6.07495C9.59151 5.99694 9.51906 5.87901 9.49832 5.74735C9.22227 3.99494 9.8034 2.71219 10.6616 1.84311ZM10.4322 5.05051C10.9838 4.87866 11.6201 4.56143 12.1221 4.06324C12.6862 3.5034 13.1028 2.69625 13.0153 1.52987C12.4847 1.71504 11.8688 2.04373 11.3731 2.54573C10.8104 3.1156 10.3882 3.92035 10.4322 5.05051Z" />
  <path d="M6.74466 1.36403C6.82081 1.09859 7.09771 0.945143 7.36315 1.02129C8.4313 1.32771 10.4241 2.68991 10.4999 5.68393C10.5069 5.95998 10.2888 6.18943 10.0127 6.19643C9.73668 6.20342 9.50723 5.9853 9.50024 5.70925C9.43732 3.22559 7.81131 2.19019 7.0874 1.98252C6.82196 1.90637 6.66851 1.62947 6.74466 1.36403Z" />
  <path d="M5.7976 5.51618C5.08273 5.80325 4.40428 6.33518 3.91474 6.94951C3.01446 8.0793 2.53613 9.47907 2.53613 11.1986C2.53613 14.3276 4.3809 16.9669 7.07997 18.0835C7.41131 18.2206 7.75875 18.2099 8.22329 18.1348C8.32226 18.1188 8.42919 18.0991 8.54253 18.0782C8.92684 18.0074 9.38491 17.923 9.85684 17.923C10.3302 17.923 10.8107 18.007 11.2255 18.0795C11.3576 18.1026 11.4831 18.1246 11.5995 18.1422C12.1188 18.2211 12.517 18.2314 12.872 18.0838C15.6049 16.9478 17.4589 14.3 17.4639 11.2113C17.3883 9.75258 17.1668 8.70553 16.7428 7.88888C16.3278 7.08972 15.6964 6.46856 14.717 5.90109C13.9224 5.57109 13.3583 5.45194 12.9406 5.4387C12.5294 5.42567 12.2379 5.51434 11.9817 5.63936C11.8475 5.70489 11.72 5.78185 11.5797 5.86982C11.5575 5.8837 11.5348 5.89804 11.5115 5.91271C11.3938 5.98697 11.2627 6.06966 11.1279 6.14411C10.7884 6.3316 10.3877 6.48938 9.85684 6.48938C9.22764 6.48938 8.83995 6.29877 8.52175 6.04985C8.44189 5.98738 8.34486 5.90226 8.26392 5.83126C8.22148 5.79404 8.18347 5.76069 8.15468 5.73653C8.04777 5.64681 7.94466 5.57121 7.8199 5.50793C7.21536 5.2013 6.5101 5.23007 5.7976 5.51618ZM5.42495 4.58821C6.32089 4.22843 7.33981 4.14315 8.27225 4.61609C8.4901 4.72659 8.65843 4.8538 8.79753 4.97054C8.86924 5.03072 8.92077 5.07647 8.96623 5.11683C9.02365 5.16781 9.07139 5.2102 9.13788 5.26221C9.30136 5.39009 9.47644 5.48938 9.85684 5.48938C10.1679 5.48938 10.4012 5.4031 10.6445 5.26872C10.7515 5.20961 10.8536 5.14531 10.9708 5.07145C10.9959 5.05563 11.0217 5.03937 11.0484 5.02262C11.1936 4.93153 11.3585 4.83076 11.5431 4.74067C11.9247 4.55444 12.3768 4.42033 12.9722 4.4392C13.556 4.4577 14.2527 4.62242 15.1322 4.99079L15.1611 5.00288L15.1882 5.01846C16.3065 5.66113 17.1032 6.41295 17.6303 7.42805C18.1508 8.43058 18.3851 9.64589 18.4633 11.173L18.4639 11.1858V11.1986C18.4639 14.7063 16.3566 17.7183 13.2559 19.0072C12.6339 19.2658 12.0024 19.2149 11.4494 19.1309C11.2863 19.1061 11.1317 19.0792 10.9824 19.0532C10.5912 18.9849 10.2359 18.923 9.85684 18.923C9.48487 18.923 9.15235 18.984 8.78723 19.0509C8.65765 19.0747 8.52396 19.0992 8.38294 19.122C7.87454 19.2042 7.29552 19.2549 6.69769 19.0075C3.6271 17.7372 1.53613 14.7348 1.53613 11.1986C1.53613 9.28002 2.07513 7.65346 3.13268 6.32632C3.71714 5.59286 4.53139 4.94704 5.42495 4.58821Z" />
</svg>

<svg xmlns="http://www.w3.org/2000/svg" class="icon icon-accordion icon-apple" viewBox="0 0 20 20"><path d="M10.662 1.843C11.5.994 12.582.556 13.336.406a.5.5 0 0 1 .589.397c.343 1.797-.22 3.099-1.099 3.97-.853.847-1.973 1.26-2.752 1.39a.5.5 0 0 1-.576-.416c-.276-1.752.305-3.035 1.164-3.904m-.23 3.208c.552-.172 1.188-.49 1.69-.988.564-.56.98-1.367.893-2.533a4.36 4.36 0 0 0-1.642 1.016c-.563.57-.985 1.374-.94 2.505"/><path d="M6.745 1.364a.5.5 0 0 1 .618-.343c1.068.307 3.061 1.669 3.137 4.663a.5.5 0 1 1-1 .025C9.437 3.226 7.811 2.19 7.087 1.983a.5.5 0 0 1-.342-.619"/><path d="M5.798 5.516c-.715.287-1.394.82-1.883 1.434-.9 1.13-1.379 2.53-1.379 4.249 0 3.129 1.845 5.768 4.544 6.885.331.137.679.126 1.143.05q.15-.024.32-.056c.384-.07.842-.155 1.314-.155s.954.084 1.369.157q.198.036.373.062c.52.08.918.09 1.273-.058a7.42 7.42 0 0 0 4.592-6.873c-.076-1.458-.297-2.505-.721-3.322-.415-.8-1.047-1.42-2.026-1.988-.795-.33-1.359-.45-1.776-.462a1.93 1.93 0 0 0-.96.2 4 4 0 0 0-.401.23l-.069.044a8 8 0 0 1-.383.231c-.34.188-.74.345-1.271.345-.63 0-1.017-.19-1.335-.44-.08-.062-.177-.147-.258-.218q-.065-.057-.11-.094a1.7 1.7 0 0 0-.334-.23c-.605-.306-1.31-.277-2.022.01m-.373-.928c.896-.36 1.915-.445 2.847.028.218.11.386.238.526.355.071.06.123.105.168.146.058.05.105.093.172.145.163.128.338.227.719.227.31 0 .544-.086.788-.22a7 7 0 0 0 .403-.246c.146-.091.31-.192.495-.282a2.9 2.9 0 0 1 1.43-.302c.583.019 1.28.183 2.16.552l.028.012.027.015c1.118.643 1.915 1.395 2.442 2.41.52 1.003.755 2.218.833 3.745v.026a8.42 8.42 0 0 1-5.207 7.808c-.622.259-1.254.208-1.807.124a22 22 0 0 1-.467-.078c-.39-.068-.746-.13-1.125-.13-.372 0-.705.061-1.07.128q-.194.036-.404.071c-.508.082-1.087.133-1.685-.114-3.07-1.27-5.162-4.273-5.162-7.81 0-1.918.54-3.545 1.597-4.872.584-.733 1.398-1.379 2.292-1.738"/></svg>
